frontend/public/images/dashboards/icon_sourcing.svg

<?xml version="1.0" encoding="UTF-8"?>
<svg width="47px" height="42px" viewBox="0 0 47 42" version="1.1" xmlns="http://www.w3.org/2000/svg" xmlns:xlink="http://www.w3.org/1999/xlink">
    <!-- Generator: Sketch 52.2 (67145) - http://www.bohemiancoding.com/sketch -->
    <title>Group 10</title>
    <desc>Created with Sketch.</desc>
    <g id="Page-1" stroke="none" stroke-width="1" fill="none" fill-rule="evenodd">
        <g id="dashboard-3" transform="translate(-256.000000, -329.000000)" fill="#34444C">
            <g id="Group-10" transform="translate(256.000000, 329.000000)">
                <g id="Group-3" transform="translate(0.000000, 0.627820)">
                    <path d="M1.50353383,25.7544361 C2.33360902,25.7544361 3.00729323,25.0807519 3.00729323,24.2506767 C3.00729323,12.6055639 12.4817293,3.1318797 24.1268421,3.1318797 C31.2095489,3.1318797 37.6802256,6.60406015 41.6050376,12.3469173 L39.5433835,12.0702256 C38.7208271,11.9604511 37.9629323,12.536391 37.852406,13.3596992 C37.7411278,14.1830075 38.3193233,14.9401504 39.1426316,15.0506767 L44.5696992,15.78 C44.6366165,15.7897744 44.7035338,15.7935338 44.7704511,15.7935338 C45.0982707,15.7935338 45.4193233,15.6867669 45.6832331,15.4852632 C45.9997744,15.2439098 46.2080451,14.8852632 46.2606767,14.4905263 L46.99,9.06270677 C47.1012782,8.24015038 46.5238346,7.48300752 45.7005263,7.3724812 C44.8779699,7.26045113 44.1208271,7.83864662 44.0095489,8.66195489 L43.7982707,10.2393985 C39.2930075,3.92661654 32.0448872,0.124360902 24.1268421,0.124360902 C10.8238346,0.124360902 -0.00022556391,10.9476692 -0.00022556391,24.2506767 C-0.00022556391,25.0807519 0.673458647,25.7544361 1.50353383,25.7544361" id="Fill-1"></path>
                </g>
                <path d="M21.4878195,39.3375188 C21.3043609,38.5848872 20.841203,37.6773684 20.0667669,36.5480451 C19.3103759,35.442782 18.4231579,34.3766165 17.9464662,33.8382707 C18.1366917,33.6984211 18.9457143,33.242782 21.3908271,33.2706015 C22.7750376,33.2706015 23.9953383,32.3811278 24.4261654,31.0578195 C24.5803008,30.5856391 24.9329323,30.0939098 25.4449624,29.6337594 C26.3960902,28.7803759 26.9013534,27.5615789 26.8299248,26.2901504 C26.7615038,25.0495489 26.1442105,23.9262406 25.1381955,23.2081955 C24.8231579,22.9833835 24.4690226,22.792406 24.0855639,22.6412782 C22.8547368,22.1578195 21.441203,22.2149624 20.2051128,22.7969173 C18.3998496,23.6472932 15.8457143,24.0593233 14.484812,24.2292481 C14.1502256,24.2713534 13.7953383,24.2645865 13.3953383,24.2089474 C12.016391,24.0209774 10.8517293,24.6608271 9.95548872,25.4796241 C9.96676692,22.8623308 10.7178947,20.3187218 12.0870677,18.1217293 C12.3133835,18.3991729 12.5750376,18.6525564 12.8757895,18.8668421 C13.1915789,19.0931579 13.5457143,19.2841353 13.9276692,19.4337594 C14.4780451,19.6503008 15.0630075,19.7600752 15.6667669,19.7600752 L15.6705263,19.7600752 C16.4006015,19.7600752 17.141203,19.5939098 17.8096241,19.2788722 C19.6148872,18.4284962 22.1690226,18.017218 23.5306767,17.8465414 C23.8652632,17.8059398 24.222406,17.8119549 24.6193985,17.8660902 C25.8231579,18.0315038 26.9960902,17.5886466 28.1081203,16.548797 C29.1780451,15.548797 29.7607519,14.1893985 29.8021053,12.7916541 C32.7908271,14.1570677 35.2404511,16.5284962 36.666015,19.5412782 L36.6998496,19.6149624 C37.4464662,21.2119549 37.8757895,22.9187218 37.9840602,24.748797 C37.7810526,24.8946617 36.9705263,25.3322556 34.5517293,25.3081955 C33.1675188,25.3081955 31.9479699,26.1969173 31.5171429,27.5194737 C31.322406,28.117218 30.8554887,28.6247368 30.497594,28.9450376 C29.547218,29.7984211 29.0427068,31.017218 29.1141353,32.2886466 C29.1825564,33.5284962 29.7990977,34.6518045 30.8051128,35.3698496 C31.1193985,35.5939098 31.472782,35.7848872 31.8577444,35.9367669 C32.2457143,36.0886466 32.6547368,36.1690977 33.0705263,36.2142105 C30.5615038,38.3495489 27.353985,39.5653383 23.9803008,39.5653383 C23.141203,39.5653383 22.3081203,39.4848872 21.4878195,39.3375188 M16.103609,35.4367669 C16.9765414,36.4525564 17.7126316,37.4157143 18.2434586,38.2247368 C18.1720301,38.1991729 18.1006015,38.173609 18.0276692,38.1465414 C17.6479699,38.0044361 17.3096241,37.8540602 16.9900752,37.7006767 C15.9073684,37.0773684 14.9111278,36.3104511 14.0133835,35.405188 C13.2915789,34.5480451 11.7509774,32.4916541 10.8833083,30.5660902 C10.6765414,30.0269925 10.5088722,29.4638346 10.3652632,28.8781203 C10.9637594,27.8721053 12.0690226,26.4931579 13.0622556,26.636015 C13.6757895,26.7209774 14.2396992,26.7284962 14.7885714,26.6600752 C16.2945865,26.4721053 19.1366917,26.0074436 21.2487218,25.0134586 C21.8772932,24.7179699 22.584812,24.6833835 23.1885714,24.9209774 C23.3863158,24.9991729 23.5637594,25.0939098 23.7156391,25.2021805 C24.1126316,25.486391 24.3562406,25.9322556 24.384812,26.4262406 C24.4141353,26.9518045 24.203609,27.4563158 23.8088722,27.8104511 C22.9652632,28.5683459 22.3885714,29.405188 22.097594,30.2984211 C21.9960902,30.611203 21.7118797,30.8202256 21.3833083,30.8202256 C19.0780451,30.7939098 17.4833083,31.1397744 16.497594,31.8623308 C15.9479699,32.2653383 15.6013534,32.8638346 15.5231579,33.5457895 C15.4457143,34.2269925 15.6569925,34.9164662 16.103609,35.4367669 M24.8945865,11.542782 C24.9960902,11.5495489 25.0960902,11.5608271 25.1968421,11.5690977 C25.4006015,11.586391 25.6043609,11.6066917 25.8066165,11.6330075 C25.9209023,11.6472932 26.0359398,11.6660902 26.1502256,11.6833835 C26.3404511,11.7134586 26.5299248,11.7465414 26.7193985,11.7833835 C26.8314286,11.8059398 26.9442105,11.8292481 27.0562406,11.8540602 C27.1269173,11.8698496 27.1960902,11.8893985 27.2667669,11.9059398 C27.5329323,12.9330075 27.2254135,14.0209774 26.4344361,14.7600752 C25.8885714,15.2706015 25.3870677,15.4976692 24.9509774,15.4390226 C24.3381955,15.3555639 23.7735338,15.348797 23.2269173,15.4164662 C21.7216541,15.6044361 18.8780451,16.067594 16.7667669,17.0630827 C16.1381955,17.3593233 15.4306767,17.392406 14.8246617,17.1540602 C14.6291729,17.0773684 14.4532331,16.9833835 14.2983459,16.8728571 C14.0021053,16.6615789 13.7968421,16.3660902 13.6983459,16.0247368 C13.8201504,15.8931579 13.9427068,15.7630827 14.0690226,15.6367669 C14.2329323,15.473609 14.3945865,15.3089474 14.5652632,15.1540602 C14.7577444,14.9796241 14.9584962,14.8179699 15.1592481,14.654812 C15.3442105,14.505188 15.5269173,14.3533083 15.7186466,14.2134586 C15.9178947,14.0683459 16.1254135,13.936015 16.3321805,13.8021805 C16.5381955,13.6668421 16.7419549,13.5292481 16.9562406,13.4059398 C17.1607519,13.2871429 17.3735338,13.1826316 17.5855639,13.0743609 C17.8096241,12.9593233 18.0314286,12.8390226 18.2622556,12.7367669 C18.4780451,12.6405263 18.7006015,12.5608271 18.9201504,12.4751128 C19.1547368,12.3841353 19.3878195,12.2871429 19.6269173,12.2081955 C19.8645113,12.1315038 20.1081203,12.073609 20.3494737,12.0089474 C20.5795489,11.9465414 20.8066165,11.8758647 21.0396992,11.8262406 C21.3276692,11.7645865 21.6216541,11.7262406 21.9141353,11.6826316 C22.1073684,11.6540602 22.2983459,11.6127068 22.4938346,11.5916541 C22.984812,11.5397744 23.4810526,11.511203 23.9803008,11.511203 C24.2870677,11.511203 24.5915789,11.5232331 24.8945865,11.542782 M37.6103759,28.8472932 C37.5923308,28.9247368 37.5690226,29.0006767 37.5487218,29.0781203 C37.4487218,29.4653383 37.3306767,29.8472932 37.197594,30.223985 C37.1682707,30.305188 37.1419549,30.3878947 37.1111278,30.4690977 C36.9509774,30.8969173 36.7705263,31.317218 36.5690226,31.7284962 C36.535188,31.7961654 36.4968421,31.8623308 36.4622556,31.9292481 C36.2870677,32.2713534 36.0960902,32.605188 35.8915789,32.9322556 C35.8524812,32.9954135 35.8133835,33.0585714 35.772782,33.1209774 C35.3840602,33.2615789 35.022406,33.4104511 34.6945865,33.5645865 C34.0667669,33.8608271 33.36,33.8946617 32.7547368,33.6570677 C32.5577444,33.5796241 32.3803008,33.4848872 32.2276692,33.3758647 C31.8306767,33.092406 31.5870677,32.6465414 31.56,32.1518045 C31.5299248,31.6269925 31.7404511,31.1224812 32.1344361,30.7683459 C32.9780451,30.0104511 33.5547368,29.173609 33.8464662,28.2796241 C33.9479699,27.967594 34.2314286,27.7585714 34.5524812,27.7585714 L34.5524812,27.0066917 L34.5607519,27.7585714 C35.903609,27.7698496 36.9983459,27.6593233 37.8765414,27.423985 C37.872782,27.448797 37.8712782,27.4743609 37.8682707,27.4991729 C37.8043609,27.9533083 37.7186466,28.4029323 37.6103759,28.8472932 M40.4336842,24.6420301 C40.4336842,24.6405263 40.4329323,24.6397744 40.4329323,24.6382707 L40.4291729,24.5668421 C40.3103759,22.517218 39.8186466,20.5367669 38.9652632,18.6766165 L38.9201504,18.5781203 C36.9336842,14.3224812 33.2404511,11.1277444 28.7652632,9.77210526 C28.7547368,9.76834586 28.747218,9.76007519 28.7374436,9.75706767 L28.5299248,9.69766917 C27.0569925,9.27586466 25.5269173,9.06082707 23.9803008,9.06082707 C23.078797,9.06082707 22.1855639,9.13526316 21.3088722,9.2781203 C17.5103759,9.90142857 14.0231579,11.8412782 11.4750376,14.8089474 L11.3569925,14.9457895 C11.3442105,14.9615789 11.3389474,14.9818797 11.3261654,14.9984211 C8.86451128,17.9533083 7.50285714,21.6833835 7.50285714,25.5382707 C7.50285714,26.6743609 7.62015038,27.8081955 7.85924812,28.9600752 L7.86150376,28.9668421 C7.96601504,29.7886466 8.24345865,30.6555639 8.61864662,31.5059398 C8.61864662,31.5066917 8.6193985,31.5081955 8.6193985,31.5096992 C9.42165414,33.5713534 10.6148872,35.4202256 12.1863158,37.0375188 C13.1893233,38.3307519 14.5509774,39.2442857 15.8690226,39.8833835 C15.8720301,39.8848872 15.8742857,39.886391 15.8772932,39.8878947 L15.9893233,39.9503008 C18.4209023,41.3014286 21.184812,42.0157143 23.9803008,42.0157143 C29.3592481,42.0157143 34.3855639,39.3901504 37.4735338,34.9886466 C37.4810526,34.9788722 37.4923308,34.9721053 37.4990977,34.9623308 L37.5900752,34.8292481 C39.466015,32.0871429 40.4577444,28.8743609 40.4577444,25.5382707 C40.4577444,25.2397744 40.4502256,24.9420301 40.435188,24.6946617 L40.435188,24.6931579 C40.4344361,24.6758647 40.4344361,24.6585714 40.4336842,24.6420301" id="Fill-4" opacity="0.200000003"></path>
                <path d="M24.1693233,39.5485714 C24.0685714,39.5508271 23.9693233,39.5621053 23.8693233,39.5621053 C23.0294737,39.5621053 22.1956391,39.4816541 21.3753383,39.3342857 C21.1926316,38.5809023 20.7287218,37.6741353 19.9557895,36.5440602 C19.1986466,35.4395489 18.3114286,34.3733835 17.8347368,33.8342857 C18.0249624,33.695188 18.833985,33.238797 21.2790977,33.2673684 C22.5354887,33.2673684 23.6505263,32.5297744 24.1693233,31.4049624 L24.1693233,27.0921805 C24.0730827,27.3613534 23.9181955,27.6087218 23.6971429,27.807218 C22.8535338,28.5651128 22.2768421,29.4019549 21.9858647,30.295188 C21.8843609,30.607218 21.6001504,30.8169925 21.2715789,30.8169925 C18.9663158,30.7906767 17.3715789,31.1365414 16.3858647,31.8583459 C15.8354887,32.2621053 15.4896241,32.8598496 15.4114286,33.5425564 C15.3332331,34.2237594 15.5445113,34.9124812 15.9918797,35.432782 C16.864812,36.4493233 17.6016541,37.4124812 18.1317293,38.2215038 C18.0603008,38.1959398 17.9881203,38.1703759 17.9166917,38.1425564 C17.5362406,38.001203 17.1978947,37.8500752 16.8783459,37.6974436 C15.7956391,37.0733835 14.7993985,36.307218 13.9016541,35.401203 C13.1790977,34.544812 11.6384962,32.4884211 10.7723308,30.5628571 C10.5640602,30.0237594 10.3971429,29.4606015 10.2535338,28.8748872 C10.8512782,27.8688722 11.9572932,26.4899248 12.9497744,26.632782 C13.5640602,26.7177444 14.1287218,26.7252632 14.6768421,26.6568421 C16.1828571,26.4688722 19.0249624,26.0042105 21.1369925,25.0102256 C21.7655639,24.7147368 22.4730827,24.6801504 23.0768421,24.9177444 C23.2753383,24.9959398 23.4520301,25.0906767 23.6039098,25.1989474 C23.8700752,25.3891729 24.0595489,25.6560902 24.1693233,25.957594 L24.1693233,22.7282707 C24.1031579,22.6996992 24.0415038,22.6651128 23.9738346,22.6380451 C22.7437594,22.1545865 21.3302256,22.2117293 20.0933835,22.7936842 C18.2881203,23.6440602 15.733985,24.0560902 14.3730827,24.226015 C14.0384962,24.2681203 13.6828571,24.2606015 13.283609,24.2057143 C11.9046617,24.0177444 10.74,24.657594 9.8437594,25.476391 C9.85503759,22.8590977 10.6054135,20.3154887 11.9753383,18.1184962 C12.2016541,18.3959398 12.4625564,18.6493233 12.7633083,18.863609 C13.0798496,19.0899248 13.4347368,19.2801504 13.8159398,19.4305263 C14.3663158,19.6470677 14.9512782,19.7568421 15.5550376,19.7568421 L15.5580451,19.7568421 C16.2896241,19.7568421 17.0294737,19.5906767 17.6986466,19.2756391 C19.5031579,18.4252632 22.0572932,18.0132331 23.4189474,17.8433083 C23.6535338,17.8147368 23.9054135,17.8177444 24.1693233,17.8357895 L24.1693233,15.3839098 C23.8084211,15.3681203 23.4550376,15.3711278 23.115188,15.4124812 C21.6099248,15.6004511 18.7663158,16.0643609 16.6550376,17.0590977 C16.0264662,17.3553383 15.3189474,17.3891729 14.7121805,17.1500752 C14.5174436,17.0741353 14.3407519,16.9793985 14.1873684,16.8696241 C13.8903759,16.6583459 13.6858647,16.3628571 13.5858647,16.0215038 C13.7076692,15.8899248 13.8309774,15.7598496 13.9572932,15.6335338 C14.121203,15.4703759 14.283609,15.3057143 14.4535338,15.1508271 C14.646015,14.976391 14.8467669,14.8147368 15.0475188,14.6515789 C15.2317293,14.5019549 15.415188,14.3500752 15.6069173,14.2102256 C15.8061654,14.0643609 16.0129323,13.932782 16.2196992,13.7981955 C16.4264662,13.663609 16.6309774,13.526015 16.8437594,13.4027068 C17.0490226,13.2831579 17.2618045,13.1793985 17.4730827,13.0711278 C17.6978947,12.9560902 17.9196992,12.8357895 18.1505263,12.732782 C18.3655639,12.6365414 18.5881203,12.557594 18.8084211,12.4718797 C19.0437594,12.3809023 19.2753383,12.2839098 19.5159398,12.2057143 C19.752782,12.1275188 19.9956391,12.0703759 20.2377444,12.0057143 C20.4678195,11.9433083 20.6948872,11.8726316 20.9279699,11.8230075 C21.2159398,11.7606015 21.5099248,11.7230075 21.802406,11.6793985 C21.9956391,11.6508271 22.1866165,11.6094737 22.3821053,11.5884211 C22.8730827,11.5365414 23.3693233,11.5079699 23.8693233,11.5079699 C23.9693233,11.5079699 24.0685714,11.5154887 24.1693233,11.5177444 L24.1693233,9.0681203 C24.0685714,9.06661654 23.9693233,9.05759398 23.8693233,9.05759398 C22.9663158,9.05759398 22.0738346,9.1312782 21.1971429,9.27488722 C17.3986466,9.89819549 13.9114286,11.8380451 11.3633083,14.8057143 L11.246015,14.9418045 C11.2317293,14.957594 11.2264662,14.9786466 11.215188,14.995188 C8.75203008,17.9493233 7.3918797,21.6793985 7.3918797,25.5350376 C7.3918797,26.6711278 7.50766917,27.8049624 7.7475188,28.9568421 C7.74827068,28.9590977 7.74902256,28.9606015 7.74902256,28.9628571 C7.85428571,29.7854135 8.13172932,30.6515789 8.50616541,31.5027068 C8.50691729,31.5034586 8.50691729,31.5049624 8.50766917,31.5064662 C9.30917293,33.5681203 10.5031579,35.4162406 12.0745865,37.0342857 C13.077594,38.3275188 14.44,39.2410526 15.7572932,39.8793985 C15.7595489,39.8809023 15.7625564,39.8831579 15.7655639,39.8846617 L15.877594,39.9470677 C18.3091729,41.2981955 21.0730827,42.0117293 23.8693233,42.0117293 C23.9693233,42.0117293 24.0685714,42.0049624 24.1693233,42.0027068 L24.1693233,39.5485714 Z" id="Fill-8"></path>
            </g>
        </g>
    </g>
</svg>

<svg width="47" height="42" xmlns="http://www.w3.org/2000/svg"><g fill="#34444C" fill-rule="evenodd"><path d="M1.504 26.382c.83 0 1.503-.673 1.503-1.504 0-11.645 9.475-21.118 21.12-21.118a21.088 21.088 0 0 1 17.478 9.215l-2.062-.277a1.504 1.504 0 0 0-.4 2.98l5.427.73a1.503 1.503 0 0 0 1.691-1.29l.729-5.427a1.503 1.503 0 1 0-2.98-.401l-.212 1.577A24.076 24.076 0 0 0 24.127.752C10.824.752 0 11.575 0 24.878c0 .83.673 1.504 1.504 1.504"/><path d="M21.488 39.338c-.184-.753-.647-1.66-1.421-2.79a30.041 30.041 0 0 0-2.12-2.71c.19-.14.999-.595 3.444-.567a3.19 3.19 0 0 0 3.035-2.213c.154-.472.507-.964 1.019-1.424a4.16 4.16 0 0 0 1.385-3.344 4.04 4.04 0 0 0-1.692-3.082 4.913 4.913 0 0 0-1.052-.567c-1.231-.483-2.645-.426-3.88.156-1.806.85-4.36 1.262-5.721 1.432a4.11 4.11 0 0 1-1.09-.02c-1.379-.188-2.543.452-3.44 1.27a14.03 14.03 0 0 1 2.132-7.357c.226.277.488.53.789.745a4.83 4.83 0 0 0 2.79.893h.005c.73 0 1.47-.166 2.139-.481 1.805-.85 4.359-1.262 5.72-1.432.335-.041.692-.035 1.09.02 1.203.165 2.376-.278 3.488-1.318 1.07-1 1.653-2.36 1.694-3.757a14.03 14.03 0 0 1 6.864 6.75l.034.073a13.938 13.938 0 0 1 1.284 5.134c-.203.146-1.013.583-3.432.56a3.188 3.188 0 0 0-3.035 2.21c-.195.598-.662 1.106-1.02 1.426a4.16 4.16 0 0 0-1.383 3.344 4.039 4.039 0 0 0 1.691 3.08c.314.225.668.416 1.053.568.388.152.797.232 1.213.277a14.02 14.02 0 0 1-9.09 3.351c-.84 0-1.673-.08-2.493-.227m-5.384-3.901c.873 1.016 1.609 1.979 2.14 2.788l-.216-.078c-.38-.143-.718-.293-1.038-.446a14.071 14.071 0 0 1-2.977-2.296c-.721-.857-2.262-2.913-3.13-4.839a14.045 14.045 0 0 1-.518-1.688c.599-1.006 1.704-2.385 2.697-2.242a6.54 6.54 0 0 0 1.727.024c1.506-.188 4.348-.653 6.46-1.647.628-.295 1.336-.33 1.94-.092.197.078.375.173.527.281.397.284.64.73.669 1.224.03.526-.181 1.03-.576 1.384-.844.758-1.42 1.595-1.711 2.488a.747.747 0 0 1-.715.522c-2.305-.026-3.9.32-4.885 1.042a2.405 2.405 0 0 0-.975 1.684c-.077.681.134 1.37.58 1.89m8.792-23.893c.101.007.201.018.302.026.204.017.407.038.61.064.114.014.229.033.343.05a16.384 16.384 0 0 1 .906.171c.07.016.14.035.21.052a2.895 2.895 0 0 1-.832 2.854c-.545.51-1.047.738-1.483.679a6.618 6.618 0 0 0-1.724-.023c-1.505.188-4.349.652-6.46 1.647-.629.296-1.336.33-1.942.091a2.431 2.431 0 0 1-.527-.281 1.565 1.565 0 0 1-.6-.848c.122-.132.245-.262.371-.388.164-.163.326-.328.496-.483.193-.174.393-.336.594-.5.185-.149.368-.3.56-.44.199-.146.406-.278.613-.412.206-.135.41-.273.624-.396.205-.119.418-.223.63-.332.224-.115.445-.235.676-.337.216-.096.439-.176.658-.262.235-.09.468-.188.707-.267.238-.076.481-.134.722-.2.23-.061.458-.132.69-.182.289-.061.583-.1.875-.143.193-.029.384-.07.58-.091.49-.052.987-.08 1.486-.08.307 0 .612.011.915.03M37.61 28.848c-.018.078-.041.154-.061.231-.1.387-.218.77-.351 1.146-.03.081-.056.164-.087.245-.16.428-.34.848-.542 1.26-.034.067-.072.133-.107.2-.175.342-.366.676-.57 1.003-.04.063-.079.127-.12.189-.388.14-.75.29-1.077.444-.628.296-1.335.33-1.94.092a2.447 2.447 0 0 1-.527-.281 1.601 1.601 0 0 1-.668-1.224c-.03-.525.18-1.03.574-1.384.844-.758 1.42-1.594 1.712-2.488a.744.744 0 0 1 .706-.521v-.752l.009.752c1.343.01 2.437-.1 3.316-.335l-.009.075c-.064.454-.15.904-.258 1.348m2.824-4.205l-.001-.004-.004-.071c-.119-2.05-.61-4.03-1.464-5.89l-.045-.099a16.476 16.476 0 0 0-10.155-8.806c-.01-.004-.018-.012-.028-.015l-.207-.06a16.519 16.519 0 0 0-7.221-.419 16.472 16.472 0 0 0-9.834 5.53l-.118.138c-.013.016-.018.036-.03.052A16.478 16.478 0 0 0 7.858 28.96l.003.007c.104.822.381 1.689.757 2.539v.004a16.426 16.426 0 0 0 3.567 5.528c1.003 1.293 2.365 2.206 3.683 2.845l.008.005.112.062a16.478 16.478 0 0 0 21.484-4.962c.008-.01.02-.016.026-.026l.091-.133a16.385 16.385 0 0 0 2.845-10.134v-.002l-.001-.051" opacity=".2"/><path d="M24.17 39.549c-.101.002-.2.013-.3.013-.84 0-1.674-.08-2.495-.228-.182-.753-.646-1.66-1.42-2.79a30.383 30.383 0 0 0-2.12-2.71c.19-.139.999-.595 3.444-.567a3.182 3.182 0 0 0 2.89-1.862v-4.313c-.096.27-.25.517-.472.715-.843.758-1.42 1.595-1.711 2.488a.748.748 0 0 1-.714.522c-2.306-.026-3.9.32-4.886 1.041a2.404 2.404 0 0 0-.975 1.685c-.078.68.134 1.37.58 1.89.874 1.016 1.61 1.98 2.14 2.789-.07-.026-.143-.052-.214-.08-.38-.14-.72-.292-1.039-.445a14.075 14.075 0 0 1-2.976-2.296c-.723-.856-2.264-2.913-3.13-4.838a13.78 13.78 0 0 1-.518-1.688c.597-1.006 1.703-2.385 2.696-2.242a6.546 6.546 0 0 0 1.727.024c1.506-.188 4.348-.653 6.46-1.647.629-.295 1.336-.33 1.94-.092.198.078.375.173.527.28.266.191.456.458.565.76v-3.23c-.066-.028-.127-.063-.195-.09-1.23-.483-2.644-.426-3.88.156-1.806.85-4.36 1.262-5.72 1.432-.336.042-.691.035-1.09-.02-1.38-.188-2.544.452-3.44 1.27.011-2.617.761-5.16 2.131-7.358.227.278.488.531.788.746.317.226.672.416 1.053.567.55.216 1.135.326 1.739.326h.003c.732 0 1.471-.166 2.14-.481 1.805-.85 4.36-1.263 5.72-1.433.236-.028.487-.025.751-.007v-2.452a6.435 6.435 0 0 0-1.054.028c-1.505.188-4.349.652-6.46 1.647-.629.296-1.336.33-1.943.091a2.4 2.4 0 0 1-.525-.28 1.572 1.572 0 0 1-.601-.848c.122-.132.245-.262.371-.388.164-.164.327-.328.497-.483.192-.175.393-.336.594-.5.184-.149.367-.3.559-.44.2-.147.406-.278.613-.413.206-.134.411-.272.624-.395.205-.12.418-.224.63-.332.224-.115.446-.235.677-.338.215-.096.437-.175.657-.261.236-.091.467-.188.708-.266.237-.078.48-.136.722-.2.23-.063.457-.133.69-.183.288-.062.582-.1.874-.144.194-.028.385-.07.58-.09.491-.052.987-.081 1.487-.081.1 0 .2.007.3.01v-2.45c-.1-.001-.2-.01-.3-.01a16.472 16.472 0 0 0-12.506 5.748l-.117.136c-.014.016-.02.037-.03.053a16.467 16.467 0 0 0-3.468 13.962l.001.006c.105.822.383 1.689.757 2.54a16.422 16.422 0 0 0 3.568 5.532c1.004 1.293 2.366 2.206 3.683 2.844l.009.006.112.062a16.491 16.491 0 0 0 7.991 2.065c.1 0 .2-.007.3-.01V39.55z"/></g></svg>
